Yaru++/apps/16/livepatch.svg

<svg height="16" width="16" xmlns="http://www.w3.org/2000/svg"><path d="m8.4166489 1.3666328c-.6903637 0-1.250008.559645-1.250008 1.250001 0 .69036.5596443 1.250006 1.250008 1.250006.046952-.000469.0938-.0038.1403813-.0094.081953.0061.1735624.0094.2762864.0094a4.1666773 4.1666773 0 0 1 4.1666724 4.166677 4.1666773 4.1666773 0 0 1 -4.1666724 4.1666762 4.1666773 4.1666773 0 0 1 -4.0779772-3.3333422h1.4318896c.4325153-.000094.7027874-.280641.4866583-.505167l-2.5622637-2.659716c-.095686-.09934-.2690341-.162647-.460206-.168051-.2100005-.0059-.4079962.05894-.513106.168051l-2.56226367 2.659716c-.2161292.224526.054138.505078.48665827.505167h1.1576364c.4103868 3.2882662 3.2135226 5.8333492 6.612974 5.8333492 3.6819094 0 6.6666834-2.984775 6.6666834-6.6666832 0-3.68191-2.984774-6.666689-6.6666834-6.666684-.093948 0-.1750623.0048-.2471958.01303-.056129-.0082-.1127527-.01251-.1694719-.01303z" fill="#808080" stroke-width=".083334"/></svg>

<?xml version="1.0" encoding="UTF-8" standalone="no"?>
<svg
   xmlns:dc="http://purl.org/dc/elements/1.1/"
   xmlns:cc="http://creativecommons.org/ns#"
   xmlns:rdf="http://www.w3.org/1999/02/22-rdf-syntax-ns#"
   xmlns:svg="http://www.w3.org/2000/svg"
   xmlns="http://www.w3.org/2000/svg"
   xmlns:sodipodi="http://sodipodi.sourceforge.net/DTD/sodipodi-0.dtd"
   xmlns:inkscape="http://www.inkscape.org/namespaces/inkscape"
   width="16"
   height="16"
   version="1.1"
   id="svg8"
   sodipodi:docname="livepatch.svg"
   inkscape:version="0.92.4 (5da689c313, 2019-01-14)">
  <metadata
     id="metadata14">
    <rdf:RDF>
      <cc:Work
         rdf:about="">
        <dc:format>image/svg+xml</dc:format>
        <dc:type
           rdf:resource="http://purl.org/dc/dcmitype/StillImage" />
        <dc:title></dc:title>
      </cc:Work>
    </rdf:RDF>
  </metadata>
  <defs
     id="defs12" />
  <sodipodi:namedview
     pagecolor="#ffffff"
     bordercolor="#666666"
     borderopacity="1"
     objecttolerance="10"
     gridtolerance="10"
     guidetolerance="10"
     inkscape:pageopacity="0"
     inkscape:pageshadow="2"
     inkscape:window-width="1920"
     inkscape:window-height="1016"
     id="namedview10"
     showgrid="false"
     inkscape:zoom="14.75"
     inkscape:cx="8"
     inkscape:cy="8"
     inkscape:window-x="0"
     inkscape:window-y="27"
     inkscape:window-maximized="1"
     inkscape:current-layer="svg8" />
  <path
     inkscape:connector-curvature="0"
     style="display:inline;fill:#808080;fill-opacity:1;stroke-width:0.08333354;enable-background:new"
     d="m 8.4166489,1.3666328 c -0.6903637,0 -1.250008,0.559645 -1.250008,1.250001 0,0.69036 0.5596443,1.250006 1.250008,1.250006 0.046952,-4.69e-4 0.0938,-0.0038 0.1403813,-0.0094 0.081953,0.0061 0.1735624,0.0094 0.2762864,0.0094 A 4.1666773,4.1666773 0 0 1 12.999989,8.0333168 4.1666773,4.1666773 0 0 1 8.8333166,12.199993 4.1666773,4.1666773 0 0 1 4.7553394,8.8666508 H 6.187229 c 0.4325153,-9.4e-5 0.7027874,-0.280641 0.4866583,-0.505167 L 4.1116236,5.7017678 c -0.095686,-0.09934 -0.2690341,-0.162647 -0.460206,-0.168051 -0.2100005,-0.0059 -0.4079962,0.05894 -0.513106,0.168051 l -2.56226367,2.659716 c -0.2161292,0.224526 0.054138,0.505078 0.48665827,0.505167 H 2.2203426 C 2.6307294,12.154917 5.4338652,14.7 8.8333166,14.7 12.515226,14.7 15.5,11.715225 15.5,8.0333168 c 0,-3.68191 -2.984774,-6.666689 -6.6666834,-6.666684 -0.093948,0 -0.1750623,0.0048 -0.2471958,0.01303 -0.056129,-0.0082 -0.1127527,-0.01251 -0.1694719,-0.01303 z"
     id="path5281-6" />
</svg>
